!! 00053] TT[KA
!! Kassette von Frau Li Wenzhen, Peking - Zum Gesangsheft
!!!OTL: Ha you gua
!!!ARE: Asia, China,ÿHeilongjiang
!! Ethnic Group: Han
!! MM, Seite 6, 2,  und III, 80
!!!SCT: C1265
!!!YEM: Copyright 1995, estate of Helmut Schaffrath.
**kern
*ICvox
*Ivox
!! Mixed meters:  2/4; 1/4
*M1/4
*k[f#c#]
*D:
{8dd
8dd
4b
=1
4a
=2
*M2/4
4ee
4b
=3
*M1/4
4a}
=4
*M2/4
{16b
16a
8b
4a
=5
*M1/4
4a
=6
*M2/4
8e
8a
16b
16a
8b
=7
*M1/4
4a}
=8
*M2/4
{8b
16b
16a
8gg
8b
=9
*M1/4
4a
=10
*M2/4
8b
16g#
16f#
8e
8e
=11
*M1/4
4ee}
=12
*M2/4
{4b
4dd
=13
*M1/4
8a
8a
=14
*M2/4
8a
16f#
16a
16b
16a
8b
=15
*M1/4
4a
=16
*M2/4
8b
16a
16b
8dd
16b
16r
=17
*M1/4
4a}
=18
*M2/4
{8b
16g
16f#
8ee
8ee
=19
*M1/4
8.ee
16cc#
=20
*M2/4
8.ee
16cc#
4b
=21
*M1/4
4a
=22
*M2/4
4b
4a
=23
*M1/4
8a
8a}
=24
*M2/4
{8a
16f#
16a
16b
16a
8b
=25
*M1/4
4a
=26
*M2/4
8b
16a
16b
8dd
16g
16a
=27
*M1/4
4a
=28
*M2/4
8b
16b
16a
8g#
8b
=29
*M1/4
4a}
=30
*M2/4
{4ee
4b
=31
*M1/4
4a
=32
*M2/4
4dd
4a
=33
*M1/4
4a}
=34
*M2/4
{8e
16a
16a
16b
16a
8b
=35
*M1/4
4a
=36
*M2/4
8b
16a
16b
8d
16a
16b
=37
*M1/4
4a}
=38
*M2/4
{8.ee
16cc#
4b
=39
*M1/4
4a
=40
*M2/4
16b
16r
16b
16r
4a
=41
*M1/4
4a}
=42
*M2/4
{8cc#
16f#
16a
16b
16a
8b
=43
*M1/4
4a
=44
*M2/4
8b
16a
16b
8dd
16b
16r
=45
*M1/4
4a}
=46
*M2/4
{8cc#
8ee
8cc#
8ee
=47
*M1/4
8.ee
16cc#
=48
*M2/4
4b
4dd
=49
*M1/4
8a
8a}
=50
*M2/4
{8cc#
16f#
16a
16b
16b
16a
16b
=51
*M1/4
4a
=52
*M2/4
4ee
4b
=53
*M1/4
4a
=54
*M2/4
16b
16a
8b
4a
=55
*M1/4
4a}
=56
*M2/4
{8dd
16a
16dd
8b
16a
16a
=57
*M1/4
4a
=58
*M2/4
8dd
8dd
8b
16a
16f#
=59
4a}
==
!!!AGN: Haozi, Taimu haozi. Tongyi bufa, Tiaojie jingli
!! Die Stuecke sind meist uebersteuert, also verzerrt.
!!    Zweistimmig notiert, aber keine echte Zweistimmigkeit. Daher sind beide
!!    Stimmen notiert: jeder 2. T. wird von der zweiten Stimme gesungen,
!!    also meist 5__ , waehrend die andere pausiert. In den T.15/25/51 ist
!!    die uebergebundene 5, Wert 16) weggelassen, weil ansonsten nur die
!!    Oberstimme kodiert ist.
!!    Zahlreiche Verzierungen. Grundton nicht angegeben., 04=68-78)
!!    Fehlen Oktavierungspunkte, z.B. Phr.11)?
!!!ONB: ESAC (Essen Associative Code) Database: CHINA
!!!AMT: irregular
!!!AIN: vox
!!!EED: Helmut Schaffrath
!!!EEV: 1.0
*-
